src/pos-icons/closed-caption-outline.svg

<svg height="24" viewBox="0 0 24 24" width="24" xmlns="http://www.w3.org/2000/svg"><path d="m5 4c-.55 0-1 .18-1.41.57-.39.39-.59.87-.59 1.43v12c0 .56.2 1.04.59 1.43.41.39.86.57 1.41.57h14c.5 0 1-.19 1.39-.59.41-.41.61-.88.61-1.41v-12c0-.53-.2-1-.61-1.41-.39-.4-.89-.59-1.39-.59zm-.5 1.5h15v13h-15zm2.5 3.5c-.3 0-.53.09-.72.28s-.28.42-.28.72v4c0 .3.09.53.28.72s.42.28.72.28h3c.27 0 .5-.09.71-.28.2-.19.29-.42.29-.72v-1h-1.5v.5h-2v-3h2v.5h1.5v-1c0-.3-.09-.53-.29-.72-.21-.19-.44-.28-.71-.28zm7 0c-.27 0-.5.09-.71.28-.2.19-.29.42-.29.72v4c0 .3.09.53.29.72.21.19.44.28.71.28h3c.3 0 .53-.09.72-.28s.28-.42.28-.72v-1h-1.5v.5h-2v-3h2v.5h1.5v-1c0-.3-.09-.53-.28-.72s-.42-.28-.72-.28z"/></svg>

<?xml version="1.0" encoding="UTF-8"?><!DOCTYPE svg PUBLIC "-//W3C//DTD SVG 1.1//EN" "http://www.w3.org/Graphics/SVG/1.1/DTD/svg11.dtd"><svg xmlns="http://www.w3.org/2000/svg" xmlns:xlink="http://www.w3.org/1999/xlink" version="1.1" id="mdi-closed-caption-outline" width="24" height="24" viewBox="0 0 24 24"><path d="M5,4C4.45,4 4,4.18 3.59,4.57C3.2,4.96 3,5.44 3,6V18C3,18.56 3.2,19.04 3.59,19.43C4,19.82 4.45,20 5,20H19C19.5,20 20,19.81 20.39,19.41C20.8,19 21,18.53 21,18V6C21,5.47 20.8,5 20.39,4.59C20,4.19 19.5,4 19,4H5M4.5,5.5H19.5V18.5H4.5V5.5M7,9C6.7,9 6.47,9.09 6.28,9.28C6.09,9.47 6,9.7 6,10V14C6,14.3 6.09,14.53 6.28,14.72C6.47,14.91 6.7,15 7,15H10C10.27,15 10.5,14.91 10.71,14.72C10.91,14.53 11,14.3 11,14V13H9.5V13.5H7.5V10.5H9.5V11H11V10C11,9.7 10.91,9.47 10.71,9.28C10.5,9.09 10.27,9 10,9H7M14,9C13.73,9 13.5,9.09 13.29,9.28C13.09,9.47 13,9.7 13,10V14C13,14.3 13.09,14.53 13.29,14.72C13.5,14.91 13.73,15 14,15H17C17.3,15 17.53,14.91 17.72,14.72C17.91,14.53 18,14.3 18,14V13H16.5V13.5H14.5V10.5H16.5V11H18V10C18,9.7 17.91,9.47 17.72,9.28C17.53,9.09 17.3,9 17,9H14Z" /></svg>
